components/Common/Svg/svgs/titledIonic.svg

<svg width="96" height="148" viewBox="0 0 96 148" fill="none" xmlns="http://www.w3.org/2000/svg">
<path d="M30.1138 125.454V138H28.4758V125.454H30.1138ZM37.2075 138.162C36.2835 138.162 35.4435 137.952 34.6875 137.532C33.9435 137.112 33.3555 136.518 32.9235 135.75C32.5035 134.97 32.2935 134.07 32.2935 133.05C32.2935 132.042 32.5095 131.154 32.9415 130.386C33.3855 129.606 33.9855 129.012 34.7415 128.604C35.4975 128.184 36.3435 127.974 37.2795 127.974C38.2155 127.974 39.0615 128.184 39.8175 128.604C40.5735 129.012 41.1675 129.6 41.5995 130.368C42.0435 131.136 42.2655 132.03 42.2655 133.05C42.2655 134.07 42.0375 134.97 41.5815 135.75C41.1375 136.518 40.5315 137.112 39.7635 137.532C38.9955 137.952 38.1435 138.162 37.2075 138.162ZM37.2075 136.722C37.7955 136.722 38.3475 136.584 38.8635 136.308C39.3795 136.032 39.7935 135.618 40.1055 135.066C40.4295 134.514 40.5915 133.842 40.5915 133.05C40.5915 132.258 40.4355 131.586 40.1235 131.034C39.8115 130.482 39.4035 130.074 38.8995 129.81C38.3955 129.534 37.8495 129.396 37.2615 129.396C36.6615 129.396 36.1095 129.534 35.6055 129.81C35.1135 130.074 34.7175 130.482 34.4175 131.034C34.1175 131.586 33.9675 132.258 33.9675 133.05C33.9675 133.854 34.1115 134.532 34.3995 135.084C34.6995 135.636 35.0955 136.05 35.5875 136.326C36.0795 136.59 36.6195 136.722 37.2075 136.722ZM49.2252 127.956C50.4252 127.956 51.3972 128.322 52.1412 129.054C52.8852 129.774 53.2572 130.818 53.2572 132.186V138H51.6372V132.42C51.6372 131.436 51.3912 130.686 50.8992 130.17C50.4072 129.642 49.7352 129.378 48.8832 129.378C48.0192 129.378 47.3292 129.648 46.8132 130.188C46.3092 130.728 46.0572 131.514 46.0572 132.546V138H44.4192V128.136H46.0572V129.54C46.3812 129.036 46.8192 128.646 47.3712 128.37C47.9352 128.094 48.5532 127.956 49.2252 127.956ZM56.7789 126.534C56.4669 126.534 56.2029 126.426 55.9869 126.21C55.7709 125.994 55.6629 125.73 55.6629 125.418C55.6629 125.106 55.7709 124.842 55.9869 124.626C56.2029 124.41 56.4669 124.302 56.7789 124.302C57.0789 124.302 57.3309 124.41 57.5349 124.626C57.7509 124.842 57.8589 125.106 57.8589 125.418C57.8589 125.73 57.7509 125.994 57.5349 126.21C57.3309 126.426 57.0789 126.534 56.7789 126.534ZM57.5709 128.136V138H55.9329V128.136H57.5709ZM59.7506 133.05C59.7506 132.03 59.9546 131.142 60.3626 130.386C60.7706 129.618 61.3346 129.024 62.0546 128.604C62.7866 128.184 63.6206 127.974 64.5566 127.974C65.7686 127.974 66.7646 128.268 67.5446 128.856C68.3366 129.444 68.8586 130.26 69.1106 131.304H67.3466C67.1786 130.704 66.8486 130.23 66.3566 129.882C65.8766 129.534 65.2766 129.36 64.5566 129.36C63.6206 129.36 62.8646 129.684 62.2886 130.332C61.7126 130.968 61.4246 131.874 61.4246 133.05C61.4246 134.238 61.7126 135.156 62.2886 135.804C62.8646 136.452 63.6206 136.776 64.5566 136.776C65.2766 136.776 65.8766 136.608 66.3566 136.272C66.8366 135.936 67.1666 135.456 67.3466 134.832H69.1106C68.8466 135.84 68.3186 136.65 67.5266 137.262C66.7346 137.862 65.7446 138.162 64.5566 138.162C63.6206 138.162 62.7866 137.952 62.0546 137.532C61.3346 137.112 60.7706 136.518 60.3626 135.75C59.9546 134.982 59.7506 134.082 59.7506 133.05Z" fill="#A0A0A0"/>
<path fill-rule="evenodd" clip-rule="evenodd" d="M79.5715 33.8095L79.8572 34.4762C81.9524 39.0952 83 43.9523 83 49C83 68.2857 67.2857 84 48 84C28.7143 84 13 68.2857 13 49C13 29.7143 28.7143 14 48 14C53.6667 14 59.0475 15.3333 64 17.8095L64.6666 18.1429L64.0952 18.619C62.6667 19.7619 61.5715 21.1905 60.8573 22.8571L60.6667 23.3333L60.2382 23.1429C56.381 21.3333 52.2858 20.381 48 20.381C32.1905 20.381 19.381 33.1905 19.381 49C19.381 64.8095 32.1905 77.6191 48 77.6191C63.8095 77.6191 76.6191 64.7618 76.6191 49C76.6191 45.2382 75.9048 41.5238 74.4285 38.0476L74.2382 37.5714L74.7142 37.3809C76.3808 36.7618 77.9047 35.7143 79.0953 34.381L79.5715 33.8095ZM70.9047 34.4762C74.9286 34.4762 78.1906 31.2143 78.1906 27.1905C78.1906 23.1667 74.9286 19.9048 70.9047 19.9048C66.881 19.9048 63.619 23.1667 63.619 27.1905C63.619 31.2143 66.881 34.4762 70.9047 34.4762ZM47.9998 33.0477C39.1903 33.0477 32.0474 40.1905 32.0474 49.0002C32.0474 57.8097 39.1903 64.9526 47.9998 64.9526C56.8093 64.9526 63.9521 57.8097 63.9521 49.0002C63.9521 40.1905 56.8093 33.0477 47.9998 33.0477Z" fill="#686868"/>
</svg>

<svg width="96" height="148" viewBox="0 0 96 148" fill="none" xmlns="http://www.w3.org/2000/svg"><path d="M30.114 125.454V138h-1.638v-12.546h1.638Zm7.094 12.708c-.925 0-1.764-.21-2.52-.63a4.58 4.58 0 0 1-1.765-1.782c-.42-.78-.63-1.68-.63-2.7 0-1.008.217-1.896.648-2.664a4.51 4.51 0 0 1 1.8-1.782c.757-.42 1.602-.63 2.538-.63.936 0 1.782.21 2.538.63.757.408 1.35.996 1.782 1.764.445.768.667 1.662.667 2.682s-.228 1.92-.684 2.7a4.634 4.634 0 0 1-1.819 1.782c-.767.42-1.62.63-2.555.63Zm0-1.44c.587 0 1.14-.138 1.656-.414.516-.276.93-.69 1.242-1.242.323-.552.486-1.224.486-2.016s-.157-1.464-.468-2.016c-.313-.552-.72-.96-1.224-1.224a3.356 3.356 0 0 0-1.639-.414c-.6 0-1.152.138-1.656.414-.491.264-.887.672-1.188 1.224-.3.552-.45 1.224-.45 2.016 0 .804.145 1.482.433 2.034.3.552.696.966 1.188 1.242a3.372 3.372 0 0 0 1.62.396Zm12.017-8.766c1.2 0 2.172.366 2.916 1.098.744.72 1.116 1.764 1.116 3.132V138h-1.62v-5.58c0-.984-.246-1.734-.738-2.25-.492-.528-1.164-.792-2.016-.792-.864 0-1.554.27-2.07.81-.504.54-.756 1.326-.756 2.358V138H44.42v-9.864h1.638v1.404a3.266 3.266 0 0 1 1.314-1.17 4.16 4.16 0 0 1 1.854-.414Zm7.554-1.422c-.312 0-.576-.108-.792-.324a1.077 1.077 0 0 1-.324-.792c0-.312.108-.576.324-.792.216-.216.48-.324.792-.324.3 0 .552.108.756.324.216.216.324.48.324.792 0 .312-.108.576-.324.792a.998.998 0 0 1-.756.324Zm.792 1.602V138h-1.638v-9.864h1.638Zm2.18 4.914c0-1.02.204-1.908.612-2.664a4.407 4.407 0 0 1 1.692-1.782c.732-.42 1.566-.63 2.502-.63 1.212 0 2.208.294 2.988.882.792.588 1.314 1.404 1.566 2.448h-1.764a2.518 2.518 0 0 0-.99-1.422c-.48-.348-1.08-.522-1.8-.522-.936 0-1.692.324-2.268.972-.576.636-.864 1.542-.864 2.718 0 1.188.288 2.106.864 2.754.576.648 1.332.972 2.268.972.72 0 1.32-.168 1.8-.504.48-.336.81-.816.99-1.44h1.764c-.264 1.008-.792 1.818-1.584 2.43-.792.6-1.782.9-2.97.9-.936 0-1.77-.21-2.502-.63a4.407 4.407 0 0 1-1.692-1.782c-.408-.768-.612-1.668-.612-2.7Z" fill="#A0A0A0"/><path fill-rule="evenodd" clip-rule="evenodd" d="m79.572 33.81.285.666A34.82 34.82 0 0 1 83 49c0 19.286-15.714 35-35 35S13 68.286 13 49s15.714-35 35-35c5.667 0 11.047 1.333 16 3.81l.667.333-.572.476a10.873 10.873 0 0 0-3.238 4.238l-.19.476-.429-.19C56.381 21.333 52.286 20.38 48 20.38c-15.81 0-28.619 12.81-28.619 28.619 0 15.81 12.81 28.62 28.619 28.62 15.81 0 28.62-12.858 28.62-28.62 0-3.762-.715-7.476-2.192-10.952l-.19-.477.476-.19a11.111 11.111 0 0 0 4.381-3l.477-.572Zm-8.667.666a7.286 7.286 0 1 0 0-14.571 7.286 7.286 0 0 0 0 14.571ZM48 33.048c-8.81 0-15.953 7.142-15.953 15.952 0 8.81 7.143 15.953 15.953 15.953 8.81 0 15.952-7.143 15.952-15.953 0-8.81-7.143-15.952-15.952-15.952Z" fill="#686868"/></svg>
